X:18
T:Celia Connellan
R:air
C:Thomas Connellan (c. 1640 - 1698)
Z:id:hn-air-18
M:C|
L:1/8
Q:1/2=55
K:Dm
A2 | d4 d2c2 | A4 BAGF | G3A G2F2 | G2A2 c4 |
d3e d2c2 | A4 cAGF | F3G F2E2 | D2E2 F4 ||
F2GA c2A/G/F | E4 AGFE | D3E D2C2 | D2E2 F3E |
DEFG A2e2 | d3e fedc | A2GA d2E2 | D3C D2 ||
P:variations
A2 | A2d2 d2c2 | A4- AB/A/GF | G3A G2F2 | G2A2 c4 |
d3c dedc | A4 cAGF | F3G F3E | D2E2 F4 ||
F2GA cAGF | E4 AGFE | D3E D3C | D2E2 F3E |
DEFG A2e2 | d3e fedc | A2GA d2E2 | D3C D2 ||

